X:114
T:Corporation THO4.114, The
M:C
L:1/8
Z:vmp. Peter Dunk 2010/11.from a transcription by Fynn Titford-Mock 2007
B:Thompson's Compleat Collection of 200 Favourite Country Dances Volume IV.
Q:1/4=140
N:First pick up bar and final note lengths
N:altered to correct musical errors.
K:G
B/c/|dcde d2 ef|g2 fe d3 d|egfa g2 Be|d2c2B2 Bc|dcde d2 ef|
g2 fg a3 g|{g}f2 ed ^c2 de|f2Te2d3::d|defd g3 B|BcdB e3 d|
G3 f edcB|A3 B A3 A|BcBA G2 AB|cdcB A2 Bc| d2 ef g3 c|B2TA2G3:|
